resources/svg/page-number.svg

<svg width="15" height="15" viewBox="0 0 15 15" fill="none" xmlns="http://www.w3.org/2000/svg">
<path fill-rule="evenodd" clip-rule="evenodd" d="M1 1.5C1 0.671573 1.67157 0 2.5 0H10.7071L14 3.29289V13.5C14 14.3284 13.3284 15 12.5 15H2.5C1.67157 15 1 14.3284 1 13.5V1.5ZM10.5 9C9.67159 9 9.00001 9.67157 9.00001 10.5H10C10 10.2239 10.2239 10 10.5 10H10.7929C10.9073 10 11 10.0927 11 10.2071C11 10.262 10.9782 10.3147 10.9394 10.3536L9.14646 12.1464C9.00346 12.2894 8.96068 12.5045 9.03807 12.6913C9.11547 12.8782 9.29778 13 9.50001 13H12V12H10.7071L11.6465 11.0607C11.8728 10.8343 12 10.5273 12 10.2071C12 9.54044 11.4596 9 10.7929 9H10.5Z" fill="black"/>
</svg>

<svg viewBox="0 0 15 15" fill="none" xmlns="http://www.w3.org/2000/svg" fill="currentColor"><path fill-rule="evenodd" clip-rule="evenodd" d="M1 1.5A1.5 1.5 0 012.5 0h8.207L14 3.293V13.5a1.5 1.5 0 01-1.5 1.5h-10A1.5 1.5 0 011 13.5v-12zM10.5 9A1.5 1.5 0 009 10.5h1a.5.5 0 01.5-.5h.293a.207.207 0 01.146.354l-1.793 1.792A.5.5 0 009.5 13H12v-1h-1.293l.94-.94A1.207 1.207 0 0010.793 9H10.5z" fill="currentColor"/></svg>
